icons/lines/lock-slash.svg

<svg xmlns="http://www.w3.org/2000/svg" width="24" height="24" viewBox="0 0 24 24" fill="none" stroke="currentColor" stroke-width="2" stroke-linecap="round" stroke-linejoin="round">
  <path d="M10.02 17.52a2.52 2.52 0 0 0 1.98.98 2.5 2.5 0 0 0 1.99-4.02" />
  <path d="M2.82 20.8C2.21 20.04 2 18.83 2 17v-2c0-4 1-5 5-5h10a16 16 0 0 1 1 .03c3.17.18 4 1.33 4 4.97v2c0 4-1 5-5 5H7a16 16 0 0 1-1-.03" />
  <path d="M22 2 2 22" />
  <path d="M6 10V8c0-3.31 1-6 6-6 4.15 0 5.54 1.38 5.9 3.56" />
</svg>

<svg xmlns="http://www.w3.org/2000/svg" width="24" height="24" viewBox="0 0 24 24" fill="none" stroke="currentColor" stroke-width="2" stroke-linecap="round" stroke-linejoin="round" >
  <path d="M10.02 17.52C10.48 18.11 11.2 18.5 12 18.5C13.38 18.5 14.5 17.38 14.5 16C14.5 15.43 14.31 14.9 13.99 14.48"/>
  <path d="M2.82 20.8C2.21 20.04 2 18.83 2 17V15C2 11 3 10 7 10H17C17.36 10 17.69 10.01 18 10.03C21.17 10.21 22 11.36 22 15V17C22 21 21 22 17 22H7C6.64 22 6.31 21.99 6 21.97"/>
  <path d="M6 10V8C6 4.69 7 2 12 2C16.15 2 17.54 3.38 17.9 5.56"/>
  <path d="M22 2L2 22"/>
  </svg>
